X: 19747
T: Jenny Pippin
R: reel
M: 4/4
K: Dmajor
A|BADA dADA|BADA defd|BADA dADc|dBAF E2D:|
d|dfaf bfaf|dfaf g2fe|dfaf bfaf|dBAf e2dc|
dfaf bfaf|bfaf g2fg|agfe dBAB|dbaf e2d||

